X:56
T: Die dienende Schwester
N: Q0075K
O: Mitteleuropa, Deutschland (BRD) , Rheinpfalz
R: Ballade, Adelige als Dienstmagd, Tod; Kinder - Spiel, Tanz
M: 2/4
L: 1/16
K: F
C2 | F2F2F2F2 | GGG2C2
C2 | F2F2F2F2 | G2G2C2
C2 | C4C4 | B4A2G2 | A4G4 | F4z2

@@@ Tune index: 1111
